modules/coreui-icons-free/icons/audio-description.svg

<!-- Generated by IcoMoon.io -->
<svg version="1.1" xmlns="http://www.w3.org/2000/svg" width="24" height="24" viewBox="0 0 24 24">
<title>audio-description</title>
<path d="M22.125 3h-20.25c-0.621 0-1.125 0.504-1.125 1.125v0 15.75c0 0.621 0.504 1.125 1.125 1.125v0h20.25c0.621 0 1.125-0.504 1.125-1.125v0-15.75c0-0.621-0.504-1.125-1.125-1.125v0zM21.75 19.5h-19.5v-15h19.5z"></path>
<path d="M6.291 13.5h2.794l0.875 2.625h1.581l-2.75-8.25h-2.206l-2.75 8.25h1.581zM7.665 9.375h0.044l0.875 2.625h-1.793z"></path>
<path d="M19.875 12.344v-0.687c-0.002-2.087-1.694-3.779-3.781-3.781h-2.969v8.25h2.969c2.087-0.002 3.779-1.694 3.781-3.781v-0zM14.625 9.375h1.469c1.259 0.001 2.28 1.022 2.281 2.281v0.687c-0.001 1.259-1.022 2.28-2.281 2.281h-1.469z"></path>
</svg>

<svg xmlns="http://www.w3.org/2000/svg" width="24" height="24" viewBox="0 0 24 24"><path d="M22.125 3H1.875C1.254 3 .75 3.504.75 4.125v15.75c0 .621.504 1.125 1.125 1.125h20.25c.621 0 1.125-.504 1.125-1.125V4.125c0-.621-.504-1.125-1.125-1.125zm-.375 16.5H2.25v-15h19.5z"/><path d="M6.291 13.5h2.794l.875 2.625h1.581l-2.75-8.25H6.585l-2.75 8.25h1.581zm1.374-4.125h.044L8.584 12H6.791zM19.875 12.344v-.687a3.785 3.785 0 00-3.781-3.781h-2.969v8.25h2.969a3.785 3.785 0 003.781-3.781zm-5.25-2.969h1.469a2.283 2.283 0 012.281 2.281v.687a2.283 2.283 0 01-2.281 2.281h-1.469z"/></svg>
